icons/glyphs/glyph-keyboard.svg

<?xml version="1.0" encoding="UTF-8" standalone="no"?><svg height="16" viewBox="0 0 4.2333333 4.2333333" width="16" xmlns="http://www.w3.org/2000/svg"><sodipodi:namedview/><metadata><rdf:RDF><cc:Work><dc:format>image/svg+xml</dc:format><dc:type/><dc:title/></cc:Work></rdf:RDF></metadata><path d="m-.00000002 1.190625h4.23333332v1.8520833h-1.0583333-2.1166666-1.05833342zm.26458333.2645833v.2645834h.52916669v-.2645834zm.79375009 0v .2645834h.5291666v-.2645834zm.7937499 0v .2645834h.5291668v-.2645834zm.79375 0v .2645834h.5291667v-.2645834zm.79375 0v .2645834h.5291667v-.2645834zm-3.17499999.5291668v.2645833h.52916669v-.2645833zm.79375009 0v .2645833h.5291666v-.2645833zm.7937499 0v .2645833h.5291668v-.2645833zm.79375 0v .2645833h.5291667v-.2645833zm.79375 0v .2645833h.5291667v-.2645833zm-3.17499999.5291666v.2645833h.52916669v-.2645833zm.79375009 0v .2645833h2.1166666v-.2645833zm2.3812499 0v .2645833h.5291667v-.2645833z" fill="#d0d0d0"/></svg>

<?xml version="1.0" encoding="UTF-8" standalone="no"?>
<!-- Created with Inkscape (http://www.inkscape.org/) -->

<svg
     xmlns:dc="http://purl.org/dc/elements/1.1/"
     xmlns:cc="http://creativecommons.org/ns#"
     xmlns:rdf="http://www.w3.org/1999/02/22-rdf-syntax-ns#"
     xmlns:svg="http://www.w3.org/2000/svg"
     xmlns="http://www.w3.org/2000/svg"
     xmlns:sodipodi="http://sodipodi.sourceforge.net/DTD/sodipodi-0.dtd"
     xmlns:inkscape="http://www.inkscape.org/namespaces/inkscape"
     width="16"
     height="16"
     viewBox="0 0 4.2333333 4.2333333"
     version="1.1"
     id="svg8"
     inkscape:version="0.92+devel (c0065a33f9, 2017-07-22, custom)"
     sodipodi:docname="glyph-keyboard.svg">
    <defs
         id="defs2" />
    <sodipodi:namedview
         id="base"
         pagecolor="#002466"
         bordercolor="#ffffff"
         borderopacity="0.38039216"
         inkscape:pageopacity="1"
         inkscape:pageshadow="2"
         inkscape:zoom="54.75"
         inkscape:cx="8"
         inkscape:cy="8"
         inkscape:document-units="px"
         inkscape:current-layer="svg8"
         inkscape:document-rotation="0"
         showgrid="false"
         inkscape:showpageshadow="false"
         borderlayer="true"
         inkscape:window-width="1920"
         inkscape:window-height="1051"
         inkscape:window-x="0"
         inkscape:window-y="0"
         inkscape:window-maximized="1"
         units="px" />
    <metadata
         id="metadata5">
        <rdf:RDF>
            <cc:Work
                 rdf:about="">
                <dc:format>image/svg+xml</dc:format>
                <dc:type
                     rdf:resource="http://purl.org/dc/dcmitype/StillImage" />
                <dc:title></dc:title>
            </cc:Work>
        </rdf:RDF>
    </metadata>
    <path
         inkscape:connector-curvature="0"
         style="fill:#d0d0d0;fill-opacity:1;stroke:none;stroke-width:0.26458332"
         d="M -2e-8,1.190625 H 4.2333333 V 3.0427083 H 3.175 1.0583334 -2e-8 Z M 0.26458331,1.4552083 V 1.7197917 H 0.79375 V 1.4552083 Z m 0.79375009,0 V 1.7197917 H 1.5875 V 1.4552083 Z m 0.7937499,0 V 1.7197917 H 2.3812501 V 1.4552083 Z m 0.79375,0 V 1.7197917 H 3.175 V 1.4552083 Z m 0.79375,0 V 1.7197917 H 3.96875 V 1.4552083 Z M 0.26458331,1.9843751 V 2.2489584 H 0.79375 V 1.9843751 Z m 0.79375009,0 V 2.2489584 H 1.5875 V 1.9843751 Z m 0.7937499,0 V 2.2489584 H 2.3812501 V 1.9843751 Z m 0.79375,0 V 2.2489584 H 3.175 V 1.9843751 Z m 0.79375,0 V 2.2489584 H 3.96875 V 1.9843751 Z M 0.26458331,2.5135417 V 2.778125 H 0.79375 V 2.5135417 Z m 0.79375009,0 V 2.778125 H 3.175 V 2.5135417 Z m 2.3812499,0 V 2.778125 H 3.96875 V 2.5135417 Z"
         class="ColorScheme-Text"
         id="path827"
         sodipodi:nodetypes="cccccccccccccccccccccccccccccccccccccccccccccccccccccccccccccccccccccccc"
         inkscape:label="#1" />
</svg>
